X: 10617
T: Dowd's Favourite
R: reel
M: 4/4
K: Gdorian
DGGA B2GB|AFF2 CFA,F|DGGA B2Bd|BGAF DGGF|
DGGA BAGB|AFF2 CFA,F|DGGA BABd|(3cBA FA AGG2|
B2dB FBdB|FBdB cBAc|B2dB FBdB|cBAc BGGA|
BABd c3A|BABd cAFD|GBAc Bdfd|cAfA AGG2|
gdd2 g<bag|fcc2 fgaf|gdd2 g<bag|fdcA BGG2|
gdd2 g<bag|fcc2 fgaA|B2BA Bbag fdcA BGG2|

